X:65
T:Persion. JGi.065
O:Tealby,Lincolnshire
N:Version of Galopede or Persian Dance
M:2/4
L:1/8
Q:1/4=90
S:Joshua Gibbons MS,1823,Tealby,Lincs.
R:quick step
Z:VMP/R.Greig, 2009
K:D
a/g/|ff/g/ ee/f/|ddd e/f/|gg/a/ ff/g/|eee a/g/|
ff/g/ ee/f/|ddd e/f/|g/f/e/d/ c/d/e/c/|ddd:|
|:f/g/2|aaad’|aaad’|aa b/a/g/f/|gee f/g/|
aaad’|aaad’|a/g/f/g/ a/g/f/e/|dd”Da Cap”d|]

